X:1
T:Ploughman Laddie, The
T:Ploughman Laddie, The
T:Alexander Walker
C:Alexander Walker
L:1/8
M:2/2
K:F
V:1 treble 
V:1
 f | cAAG FDDF | CFA,F GABd | cAAG FGAa | fde^c (d2 d) :| g | fdad gcec | fda^c dAFD | FGAF EFGE | %9
 Ad^ce dDDg | f>d d/d/d fdad | e>c c/c/c ecge | fagf edcB | AFGE F2 F || %14

